X:1
T:Under the Blood, 11.11.11.11
T:Under the Blood, 11.11.11.11
T:E. F. Miller, 1884
T:Public Domain Courtesy of the Cyber Hymnal™
C:E. F. Miller, 1884
Z:Public Domain
Z:Courtesy of the Cyber Hymnal™
%%score ( 1 2 ) ( 3 4 )
L:1/8
Q:1/4=115
M:3/4
K:A
V:1 treble 
V:2 treble 
V:3 bass 
V:4 bass 
V:1
 [CE]2 | [Ec]3 [DB] [CA]2 | [FB]3 [FA] [DF]2 | [CE]3 [CA] [DB]2 | [CA]3 z [CE]2 | %5
 [Ec]3 [E^B] [Ec]2 | [Ae]3 [Ec] [EA]2 | [FA]3 G [FA]2 | [GB]3 z E2 | [Ec]3 [E^B] [Ec]2 | %10
 [CA]3 [CG] [EA]2 | [FB]3 [FA] [DF]2 | [CE]3 z [Ae]2 | [Ae]3 [Ae] [Ae]2 | [Ae] [Ec]3 [EA]2 | %15
 [Ec] [Ec]3 [EB]2 | [EA]3 z |] %17
V:2
 x2 | x6 | x6 | x6 | x6 | x6 | x6 | x3 G x2 | x4 E2 | x6 | x6 | x6 | x6 | x6 | x6 | x6 | x4 |] %17
V:3
 [A,,A,]2 | [A,,A,]3 [A,,A,] [A,,A,]2 | [D,A,]3 [D,A,] [D,A,]2 | [A,,A,]3 [A,,A,] [A,,A,]2 | %4
 [A,,A,]3 z A,2 | A,3 A, A,2 | [A,C]3 A, [A,C]2 | [F,C]3 [F,C] [F,C]2 | [E,E]3 z [E,G,]2 | %9
 [A,,A,]3 [A,,A,] [A,,A,]2 | [A,,A,]3 [A,,A,] [C,A,]2 | [D,A,]3 [D,A,] [D,A,]2 | %12
 [A,,A,]3 z [A,C]2 | [A,C]3 [A,C] [A,C]2 | [A,C] [A,E]3 [A,C]2 | [E,E] [E,E]3 [E,D]2 | [A,,C]3 z |] %17
V:4
 x2 | x6 | x6 | x6 | x4 A,2 | A,3 A, A,2 | x3 A, x2 | x6 | x6 | x6 | x6 | x6 | x6 | x6 | x6 | x6 | %16
 x4 |] %17

